X:62
S:Efter Elisabet Olofsdotter, Flors i Burs.
M:C|
L:1/8
K:Em
B3 B (AG) (FG)|E4 F2 G2|A2 (AB) G2 (GA)|
w:1.~Täŋ-kar däu_ i_ vär-dän at söi-kä_ räi-kä--
F4 z2 B2|B4 G2 B2|B4 A2 F2|D3 D (FA) (GF)|
w:doum? Söik häl-dar 'n så-dän, sum blott kan li--vä_
E4 z2 E2|F3 F D2 B,2|d3 ^c B2 ^A2|^c8|B8|]
w:froum! Ty räi-kä-doum på dou-mä-dag ai jäl-par.
W:2. Täŋkar däu i värdän att tagä di en ann,
W:   så ta di en sådän, sum vait häushållä kann,
W:   imeden ja all tiŋŋ förstöirar.
